X:1
T: Wellington's Advance
C:
R:Jig
Q:180
K:Am
M:6/8
L:1/16
G2|:E2A2A2 A2^G2A2|c2B2A2 c4d2|e2f2e2 e2^f2g2|d2B2G2 G2^F2G2|
E2A2A2 A2^G2A2|c2B2A2 c4d2|e2f2e2 d2c2B2|1c2A2A2 A4G2:|2c2A2A2 A4(3efg|
|:a2e2e2 a2e2e2|a2e2d2 c2B2A2|B2A2B2 g2f2e2|d2B2G2 G2^F2G2|
e2a2a2 a2^g2a2|e2g2g2 g2^f2g2|e2f2e2 d2c2B2|1c2A2A2 A4(3efg:|2c2A2A2 A4||
